neru-light-classic/32x32/apps/preferences-desktop-color.svg

<?xml version="1.0" encoding="UTF-8" standalone="no"?>
<svg
   xmlns:dc="http://purl.org/dc/elements/1.1/"
   xmlns:cc="http://creativecommons.org/ns#"
   xmlns:rdf="http://www.w3.org/1999/02/22-rdf-syntax-ns#"
   xmlns:svg="http://www.w3.org/2000/svg"
   xmlns="http://www.w3.org/2000/svg"
   xmlns:sodipodi="http://sodipodi.sourceforge.net/DTD/sodipodi-0.dtd"
   xmlns:inkscape="http://www.inkscape.org/namespaces/inkscape"
   height="32"
   width="32"
   version="1"
   id="svg38"
   sodipodi:docname="preferences-desktop-color.svg"
   inkscape:version="0.92.2 2405546, 2018-03-11">
  <metadata
     id="metadata44">
    <rdf:RDF>
      <cc:Work
         rdf:about="">
        <dc:format>image/svg+xml</dc:format>
        <dc:type
           rdf:resource="http://purl.org/dc/dcmitype/StillImage" />
        <dc:title></dc:title>
      </cc:Work>
    </rdf:RDF>
  </metadata>
  <defs
     id="defs42" />
  <sodipodi:namedview
     pagecolor="#ffffff"
     bordercolor="#666666"
     borderopacity="1"
     objecttolerance="10"
     gridtolerance="10"
     guidetolerance="10"
     inkscape:pageopacity="0"
     inkscape:pageshadow="2"
     inkscape:window-width="1680"
     inkscape:window-height="972"
     id="namedview40"
     showgrid="false"
     inkscape:zoom="3.6875"
     inkscape:cx="-71.624887"
     inkscape:cy="13.030972"
     inkscape:window-x="1360"
     inkscape:window-y="0"
     inkscape:window-maximized="1"
     inkscape:current-layer="svg38"
     showguides="true"
     inkscape:guide-bbox="true" />
  <polygon
     fill="#5a0e00"
     display="none"
     points="628.5 616 668 619.5 707 615 713 603 688.5 578 676.5 569.5 693.5 560.5 693.5 540 732.5 497.5 664 430.5 588 333 517.5 214 500 192 386 355 328 328 304 332.5 299.5 366 318.5 403.5 338 431 309.5 462 275.5 507 300 533 304 551 318.5 569.5 340.5 583 351.5 604.5 373.5 617 395 637.5 452.5 723 488.5 788.5 502 812.5 551.5 721.5 612.5 637"
     transform="matrix(.063142 0 0 .063142 -131 -24.03)"
     id="polygon2" />
  <path
     style="opacity:1;fill:#f6ef3f;fill-opacity:1;fill-rule:evenodd;stroke:none;stroke-width:1.03534329;stroke-linecap:round;stroke-linejoin:bevel;stroke-miterlimit:4;stroke-dasharray:none;stroke-dashoffset:0;stroke-opacity:1"
     d="M 16 1.8984375 L 16 15.439453 L 15.998047 16.003906 L 24.142578 1.8984375 L 16.046875 1.8984375 L 16 1.8984375 z M 7.9179688 1.9042969 L 15.996094 16.005859 L 15.998047 15.445312 L 15.998047 1.9042969 L 7.9179688 1.9042969 z "
     id="path954" />
  <path
     style="opacity:1;fill:#ef4a51;fill-opacity:1;fill-rule:evenodd;stroke:none;stroke-width:1.03534329;stroke-linecap:round;stroke-linejoin:bevel;stroke-miterlimit:4;stroke-dasharray:none;stroke-dashoffset:0;stroke-opacity:1"
     d="M 16 16 L 16 16.001953 L 24.027344 30.103516 L 24.525391 30.103516 C 27.614041 30.103516 30.101562 27.615995 30.101562 24.527344 L 30.101562 24.205078 L 30.101562 24.09375 L 30.101562 16.001953 L 16.003906 16.001953 L 16 16 z "
     id="path959" />
  <path
     style="opacity:1;fill:#fecd40;fill-opacity:1;fill-rule:evenodd;stroke:none;stroke-width:1.03534329;stroke-linecap:round;stroke-linejoin:bevel;stroke-miterlimit:4;stroke-dasharray:none;stroke-dashoffset:0;stroke-opacity:1"
     d="M 24.142578 1.8984375 L 16 16 L 16.003906 16.001953 L 30.101562 16.111328 L 30.101562 8.0957031 L 30.101562 7.9238281 L 30.101562 7.4746094 C 30.101562 4.3859586 27.614041 1.8984375 24.525391 1.8984375 L 24.142578 1.8984375 z "
     id="path962" />
  <path
     style="opacity:1;fill:#d3ccef;fill-opacity:1;fill-rule:evenodd;stroke:none;stroke-width:1.03534329;stroke-linecap:round;stroke-linejoin:bevel;stroke-miterlimit:4;stroke-dasharray:none;stroke-dashoffset:0;stroke-opacity:1"
     d="M 15.998047 16.003906 L 15.996094 16.005859 L 15.994141 16.005859 L 7.8554688 30.103516 L 15.814453 30.103516 L 15.947266 30.103516 L 24.142578 30.103516 L 16 16.003906 L 15.998047 16.003906 z "
     id="path979" />
  <path
     style="opacity:1;fill:#32a6d9;fill-opacity:1;fill-rule:evenodd;stroke:none;stroke-width:1.03534329;stroke-linecap:round;stroke-linejoin:bevel;stroke-miterlimit:4;stroke-dasharray:none;stroke-dashoffset:0;stroke-opacity:1"
     d="M 1.8984375 15.970703 L 1.8984375 24.035156 L 1.8984375 24.082031 L 1.8984375 24.527344 C 1.8984375 27.615995 4.3840063 30.103516 7.4726562 30.103516 L 7.9824219 30.103516 L 15.994141 16.005859 L 15.998047 16.003906 L 15.998047 16.001953 L 1.8984375 15.970703 z "
     id="path977" />
  <path
     style="opacity:1;fill:#add038;fill-opacity:1;fill-rule:evenodd;stroke:none;stroke-width:1.03534329;stroke-linecap:round;stroke-linejoin:bevel;stroke-miterlimit:4;stroke-dasharray:none;stroke-dashoffset:0;stroke-opacity:1"
     d="M 7.4726562 1.8964844 C 4.3840063 1.8964844 1.8984375 4.3840054 1.8984375 7.4726562 L 1.8984375 7.796875 L 1.9003906 7.7988281 L 1.9003906 15.998047 L 15.990234 15.998047 L 15.996094 16.001953 L 15.998047 16.001953 L 15.998047 16 L 15.998047 15.998047 L 15.857422 15.753906 L 7.9199219 1.8984375 L 7.8574219 1.8984375 L 7.8554688 1.8984375 L 7.8554688 1.8964844 L 7.4726562 1.8964844 z "
     id="path974" />
</svg>

<svg xmlns="http://www.w3.org/2000/svg" height="32" width="32" version="1"><path d="M16 1.898V15.44l-.002.565 8.145-14.106H16zm-8.082.006l8.078 14.102.002-.56V1.903h-8.08z" fill="#f6ef3f" fill-rule="evenodd"/><path d="M16 16v.002l8.027 14.102h.498a5.565 5.565 0 0 0 5.577-5.577v-8.525H16.004L16 16z" fill="#ef4a51" fill-rule="evenodd"/><path d="M24.143 1.898L16 16l.004.002 14.098.11V7.473a5.565 5.565 0 0 0-5.577-5.576h-.382z" fill="#fecd40" fill-rule="evenodd"/><path d="M15.998 16.004l-.002.002h-.002L7.855 30.104h16.288L16 16.004h-.002z" fill="#d3ccef" fill-rule="evenodd"/><path d="M1.898 15.97v8.557a5.563 5.563 0 0 0 5.575 5.577h.51l8.011-14.098.004-.002v-.002l-14.1-.031z" fill="#32a6d9" fill-rule="evenodd"/><path d="M7.473 1.896a5.563 5.563 0 0 0-5.575 5.577v.324l.002.002v8.199h14.09l.006.004h.002v-.004l-.14-.244L7.92 1.898h-.065v-.002h-.382z" fill="#add038" fill-rule="evenodd"/></svg>
